!!!!SEGMENT: pl-kk--kk-i-475--001_studzinski-karol--msza-3cia-kyrie.krn
!!!cenid: 18xx:1377
!!!COM: Studziński, Karol
!!!COM-rism: pe30040593
!!!CDT: 1828/01/24-1883/03/16
!!!CNT: Polish
!!!OTL: Msza 3cia – Kyrie
!!!PDT:
!!!AGN: Sacred; Mass
!!!SMS-siglum: PL-Kk
!!!SMS-shelfmark: Kk.I.475
!!!NIFC-rismID: 1001140246
!!!URL-scan: http://repozytorium.nifc.pl/skany/pl-kk-nut--i-475
!!!ONB-nifc: UWAGA: części Mszy: 1. Kyrie, 2. Gloria, 3. Graduale, 4. Credo, 5. Sanctus, 6. O salutaris, 7. Agnus Dei
!!!SMS-variant:
!!!SMS-altvar:
**kern	**kern	**text	**kern	**text	**dynam	**kern	**text	**dynam
*part4	*part3	*part3	*part2	*part2	*part2	*part1	*part1	*part1
*staff4	*staff3	*staff3	*staff2	*staff2	*	*staff1	*staff1	*
*I"Bas.	*I"Tenor.	*	*I"Alt.	*	*	*I"Sopran.	*	*
*I'B	*I'T	*	*I'A	*	*	*I'S	*	*
*clefF4	*clefG2	*	*clefG2	*	*	*clefG2	*	*
*	*ITrd7c12	*	*	*	*	*	*	*
*k[b-]	*k[b-]	*	*k[b-]	*	*	*k[b-]	*	*
*M4/4	*M4/4	*	*M4/4	*	*	*M4/4	*	*
*met(c)	*met(c)	*	*met(c)	*	*	*met(c)	*	*
=1	=1	=1	=1	=1	=1	=1	=1	=1
!LO:TX:t=P:problem:źródło wybrakowane, brak partii basu	!LO:TX:a:i:t=Andante	!	!LO:TX:a:i:t=Andante	!	!	!LO:TX:a:i:t=Andante	!	!
!	!LO:TX:a:i:t=Msza 3.	!	!LO:TX:a:i:t=Msza 3.	!	!	!LO:TX:a:i:t=Msza 3.	!	!
1ryy	4A/	Ky-	2f/	Ky-	.	(4cc\	Ky-	.
.	4B-/	-ri-	.	.	.	4dd\)	.	.
.	4A/	-e	4f/	-rie	.	4cc\	-rie	.
.	4d\	e-	4f/	e-	.	4b-\	e-	.
=2	=2	=2	=2	=2	=2	=2	=2	=2
1ryy	4c\	-le-	4f/	-lei-	.	4a/	-le-	.
.	4B-\	-i-	4e/	-i-	.	4g/	-i-	.
.	4A/	-son	4f/	-son	.	4f/	-son	.
.	4F/	e-	8d/L	e-	.	(8d/L	e-	.
.	.	.	8d-X/J	.	.	8e/J)	.	.
=3	=3	=3	=3	=3	=3	=3	=3	=3
1ryy	([4F/	-lei-	2c/	-lei-	.	2f/	-lei-	.
.	8F/L]	.	.	.	.	.	.	.
.	8G/J)	.	.	.	.	.	.	.
.	4A/	-son	4c/	-son	.	4f/	-son	.
.	(8G/L	e-	4d/	e-	.	4g/	e-	.
.	8F/J)	.	.	.	.	.	.	.
=4	=4	=4	=4	=4	=4	=4	=4	=4
1ryy	4E/	-le-	4c/	-le-	.	4.g/	-le-	.
.	4F/	-i-	4Bn/	-i-	.	.	.	.
.	.	.	.	.	.	(16d/LL	-i-	.
.	.	.	.	.	.	16e/JJ)	.	.
.	4E/	-son	4c/	-son	.	4c/	-son	.
!	!LO:TX:a:t=P:problem:brak początku łuku	!	!	!	!	!	!	!
.	(4c\	Chri-	4c/	Chri-	.	4c/	Chri-	.
!	!LO:LB:g=original	!	!LO:LB:g=original	!	!	!LO:LB:g=original	!	!
=5	=5	=5	=5	=5	=5	=5	=5	=5
1ryy	4c\	.	2f/	.	.	2.f/	-ste	.
.	8B-\L	.	.	.	.	.	.	.
.	8A\J)	.	.	.	.	.	.	.
.	4B-\	-ste	4B-/	-ste	.	.	.	.
.	4F/	e-	(8c/L	e-	.	4f/	e-	.
.	.	.	8d/J)	.	.	.	.	.
=6	=6	=6	=6	=6	=6	=6	=6	=6
1ryy	4G/	-le-	4e/	-le-	.	4b-\	-le-	.
.	4c\	-i-	(8d/L	-i-	.	(8cc\L	-i-	.
.	.	.	8e/J)	.	.	8g\J)	.	.
.	4c\	-son	4f/	-son	.	4a/	-son	.
.	4c#X\	e-	4g/	e-	.	4a/	e-	.
=7	=7	=7	=7	=7	=7	=7	=7	=7
1ryy	4d\	-le-	4f/	-le-	.	4.ff\	-le-	.
.	4c#X\	-i-	4g/	-i-	.	.	.	.
.	.	.	.	.	.	8ee\	-i-	.
.	4d\	-son	4a/	-son	.	4dd\	-son	.
.	4Bn\	e-	8g/L	e-	.	4ee\	e-	.
.	.	.	8f/J	.	.	.	.	.
=8	=8	=8	=8	=8	=8	=8	=8	=8
1ryy	4c\	-le-	4e/	-le-	.	4cc\	-le-	.
.	4d\	-i-	4f/	-i-	.	4bn\	-i-	.
.	4c\	-son	2e/	-son	.	2cc\	-son	.
.	4B-X\	.	.	.	.	.	.	.
!	!LO:LB:g=original	!	!LO:LB:g=original	!	!	!LO:LB:g=original	!	!
=9	=9	=9	=9	=9	=9	=9	=9	=9
1ryy	4A/	Ky-	2f/	Ky-	.	4cc\	Ky-	.
.	4B-/	-ri-	.	.	.	4dd\	-ri-	.
.	4A/	-e	4f/	-rie	.	4cc\	-e	.
.	4d\	e-	4f/	e-	.	4b-\	e-	.
=10	=10	=10	=10	=10	=10	=10	=10	=10
1ryy	4c\	-le-	4f/	-le-	.	4a/	-le-	.
.	4B-\	-i-	4e/	-i-	.	4g/	-i-	.
.	4A/	-son	4f/	-son	.	4f/	-son	.
.	4F/	e-	(8d/L	e-	.	(8d/L	e-	.
.	.	.	8d-X/J)	.	.	8e/J)	.	.
=11	=11	=11	=11	=11	=11	=11	=11	=11
1ryy	([4F/	-le-	2c/	-le-	.	2f/	-lei-	.
.	8F/L]	.	.	.	.	.	.	.
.	8G/J)	-i	.	.	.	.	.	.
.	4A/	son	4c/	-i-	.	4f/	-son	.
.	(8G/L	e-	4d/	-son e-	.	4g/	e-	.
.	8F/J)	.	.	.	.	.	.	.
=12	=12	=12	=12	=12	=12	=12	=12	=12
1ryy	4E/	-le-	4c/	-le-	.	4.g/	-le-	.
.	4F/	-i-	4Bn/	-i-	.	.	.	.
.	.	.	.	.	.	(16d/LL	-i-	.
.	.	.	.	.	.	16e/JJ)	.	.
.	4E/	-son	4c/	-son	.	4c/	-son	.
.	4G/	Chri-	4e/	Chri-	.	[4cc\	Chri-	.
!	!LO:LB:g=original	!	!LO:LB:g=original	!	!	!LO:LB:g=original	!	!
=13	=13	=13	=13	=13	=13	=13	=13	=13
!	!	!	!LO:TX:b:t=P:problem:przeprawiany tekst	!	!	!	!	!
1ryy	2F/	-ste	2f/	-ste	.	(<4cc\]	.	.
.	.	.	.	.	.	8b-/L	.	.
.	.	.	.	.	.	8a/J)	.	.
.	2d\	e-	8g/L	.	.	4b-/	-ste	.
.	.	.	8d/J	.	.	.	.	.
.	.	.	8g/L	e-	.	4b-/	e-	.
.	.	.	8f/J	.	.	.	.	.
=14	=14	=14	=14	=14	=14	=14	=14	=14
1ryy	(8c/L	-le-	4e/	-le-	.	4b-\	-le-	.
.	8G/J)	.	.	.	.	.	.	.
.	(8A/L	-i-	4e/	-i-	.	(8cc\L	-i-	.
.	8G/J)	.	.	.	.	8b-\J)	.	.
.	4F/	-son	4f/	-son	.	4a/	-son	.
.	4c\	e-	4f/	e-	.	4a/	e-	.
=15	=15	=15	=15	=15	=15	=15	=15	=15
1ryy	2B-\	-le-	2f/	-le-	.	2b-\	-lei-	.
.	2e-X\	-i-	2f#X/	-i-	.	4b-\	-son	.
.	.	.	.	.	.	4b-\	e-	.
=16	=16	=16	=16	=16	=16	=16	=16	=16
1ryy	2.d\	-son	(>4a/	-son	.	4a/	-lei-	.
.	.	.	2g/)	.	.	2g/	-son	.
.	4r	.	(>4f/	Chri-	.	4dd\	e-	.
!	!LO:LB:g=original	!	!LO:LB:g=original	!	!	!LO:LB:g=original	!	!
=17	=17	=17	=17	=17	=17	=17	=17	=17
1ryy	2c\	Chri-	(>2e/)	.	.	4cc\	-le-	.
.	.	.	.	.	.	4g/	-i-	.
.	4c\	-ste	4f/)	-ste	.	4a/	-son	.
.	4A/	e-	4d/	e-	.	4r	.	.
=18	=18	=18	=18	=18	=18	=18	=18	=18
1ryy	4c\	-le-	2c/	-lei-	.	2r	.	.
.	4G/	-i-	.	.	.	.	.	.
.	2A/	-son	4c/	-son	.	4r	.	.
.	.	.	4r	.	.	4dd\	e-	.
=19	=19	=19	=19	=19	=19	=19	=19	=19
1ryy	2c\	Chri-	2e/	Chri-	.	4cc\	-le-	.
.	.	.	.	.	.	4g/	-i-	.
.	4c\	-ste	4f/	-ste	.	4a/	-son	.
.	4A/	e-	4d/	e-	.	4r	.	.
=20	=20	=20	=20	=20	=20	=20	=20	=20
1ryy	4c\	-le-	2c/	-le i-	.	2r	.	.
.	4G/	-i-	.	.	.	.	.	.
.	4A/	-son	4c/	-son	.	4r	.	.
.	4r	.	4r	.	.	[4cc\	Ky-	.
!	!LO:LB:g=original	!	!LO:LB:g=original	!	!	!LO:LB:g=original	!	!
=21	=21	=21	=21	=21	=21	=21	=21	=21
1ryy	2d\	Ky-	2.f/	Ky-	.	(4cc\]	.	.
.	.	.	.	.	.	4a/)	.	.
.	2d\	-ri-	.	.	.	(4b-\	-ri-	.
.	.	.	4d/	-ri-	.	4cc\)	.	.
=22	=22	=22	=22	=22	=22	=22	=22	=22
1ryy	2c\	-e	2e/	-e	.	(4cc\	-e	.
.	.	.	.	.	.	4g/)	.	.
.	2c\	e-	2f/	e-	.	(>4a/	e-	.
.	.	.	.	.	.	4b-/)	.	.
=23	=23	=23	=23	=23	=23	=23	=23	=23
1ryy	2B-/	-le-	[2d/	-lei-	.	(4b-\	-lei-	.
.	.	.	.	.	.	4f/	.	.
.	2B-/	-i-	2d/_	.	.	4g/	.	.
.	.	.	.	.	.	[4a/	.	.
=24	=24	=24	=24	=24	=24	=24	=24	=24
1ryy	2A/	.	4d/]	.	.	4a/]	.	.
.	.	.	4c#X/	.	.	4e/	.	.
.	4A/	.	(4d/	-son	.	4f/	.	.
.	4d\	-son	4f/)	.	.	4a/)	-son	.
!	!LO:LB:g=original	!	!LO:LB:g=original	!	!	!LO:LB:g=original	!	!
=25	=25	=25	=25	=25	=25	=25	=25	=25
1ryy	4.d\	Ky-	4.f/	Ky-	.	4.g/	Ky-	.
.	8d\	-ri-	8f/	-ri-	.	8g/	-ri-	.
.	4c\	-e	4f/	-e	.	4g/	-e	.
.	4c\	e-	4f/	e-	.	4g/	e-	.
=26	=26	=26	=26	=26	=26	=26	=26	=26
1ryy	2.Bn\	-lei-	2.f/	-lei-	.	4.g/	-le-	.
.	.	.	.	.	.	8a/	-i-	.
.	.	.	.	.	.	2g/	-son	.
.	4c\	-son	4f/	-son	.	.	.	.
=27	=27	=27	=27	=27	=27	=27	=27	=27
1ryy	2d\	Chri-	2f/	Chri-	.	2g/	Chri-	.
.	4c\	-ste	4f/	-ste	.	4g/	-ste	.
.	4c\	e-	4f/	e-	.	4g/	e-	.
=28	=28	=28	=28	=28	=28	=28	=28	=28
1ryy	2.Bn\	-lei-	2.f/	-lei-	.	4.g/	-le-	.
.	.	.	.	.	.	8a/	-i-	.
.	.	.	.	.	.	2g/	-son.	.
.	4c\	-son	4f/	-son	.	.	.	.
!	!LO:LB:g=original	!	!LO:LB:g=original	!	!	!LO:LB:g=original	!	!
=29	=29	=29	=29	=29	=29	=29	=29	=29
1ryy	4.f\	Ky-	4.g/	Ky-	.	4.dd\	Ky-	.
.	8f\	-ri-	8g/	-ri-	.	8dd\	-ri-	.
.	4f\	-e	4g/	-e	.	4cc\	-e	.
.	4f\	e-	4g/	e-	.	4cc\	e-	.
=30	=30	=30	=30	=30	=30	=30	=30	=30
1ryy	2f\	-lei-	2g/	-lei-	.	2bn\	-lei-	.
.	4f\	-son	4g/	-son	.	4b-X\	-son	.
.	4f\	e-	4g/	e-	.	4b-\	e-	.
=31	=31	=31	=31	=31	=31	=31	=31	=31
*	*	*	*^	*	*	*	*	*
1ryy	4f\	-le-	2f/	2ryy	-lei-	.	2a/	-lei-	.
.	4c\	-i-	.	.	.	.	.	.	.
.	4c\	-son	4f/	4ryy	-son	.	4a/	-son	.
.	4Bn\	e-	4f/	4d\	e-	.	4a-X/	e-	.
=32	=32	=32	=32	=32	=32	=32	=32	=32	=32
1ryy	2B-X\	-lei-	2f/	2ryy	-lei-	.	2g/	-lei-	.
.	2B-;\	-son	2e;/	2c\	-son	.	2cc;\	-son.	.
*	*	*	*v	*v	*	*	*	*	*
!	!LO:LB:g=original	!	!LO:LB:g=original	!	!	!LO:LB:g=original	!	!
=33	=33	=33	=33	=33	=33	=33	=33	=33
1ryy	4A/	Ky-	2f/	Ky-	.	4cc\	Ky-	.
.	4B-/	-ri-	.	.	.	4dd\	-ri-	.
.	4A/	-e	4f/	-rie	.	4cc\	-e	.
.	4d\	e-	4f/	e-	.	4b-\	e-	.
=34	=34	=34	=34	=34	=34	=34	=34	=34
1ryy	4c\	-le-	4f/	-le-	.	4a/	-le-	.
.	4B-\	-i-	4e/	-i-	.	4g/	-i-	.
.	4A/	-son	4f/	-son	.	4f/	-son	.
.	4F/	e-	8d/L	e-	.	(8d/L	e-	.
.	.	.	8d-X/J	.	.	8e/J)	.	.
=35	=35	=35	=35	=35	=35	=35	=35	=35
1ryy	4F/	-le-	2c/	-lei-	.	2f/	-lei-	.
.	(8F/L	-i-	.	.	.	.	.	.
.	8G/J)	.	.	.	.	.	.	.
.	4A/	-son	4c/	-son	.	4f/	-son	.
.	(8G/L	e-	4d/	e-	.	4g/	e-	.
.	8F/J)	.	.	.	.	.	.	.
=36	=36	=36	=36	=36	=36	=36	=36	=36
1ryy	4E/	-le-	4c/	-le-	.	4.g/	-le-	.
.	4F/	-i-	4Bn/	-i-	.	.	.	.
.	.	.	.	.	.	(16d/LL	-i-	.
.	.	.	.	.	.	16e/JJ)	.	.
.	4E/	-son	4c/	-son	.	4c/	-son	.
.	(4c\	Chri-	4c/	Chri-	.	4c/	Chri-	.
!	!LO:LB:g=original	!	!LO:LB:g=original	!	!	!LO:LB:g=original	!	!
=37	=37	=37	=37	=37	=37	=37	=37	=37
1ryy	4c\	.	2f/	.	.	2.f/	-ste	.
.	(8B-\L	.	.	.	.	.	.	.
.	8A\J))	.	.	.	.	.	.	.
.	4B-/	-ste	4B-/	-ste	.	.	.	.
.	4F/	e-	(8c/L	e-	.	4f/	e-	.
.	.	.	8d/J)	.	.	.	.	.
=38	=38	=38	=38	=38	=38	=38	=38	=38
1ryy	4.G/	-le-	4e/	-le-	.	4b-\	-le-	.
.	.	.	8d/L	-i-	.	(8cc\L	-i-	.
.	8c\	-i-	8e/J	.	.	8g\J)	.	.
.	4c\	-son	4f/	-son	.	4a/	-son	.
!	!	!	!	!	!LO:DY:b	!	!	!
.	.	.	.	.	f	.	.	f
.	4c#X\	e-	4g/	e-	.	4a/	e-	.
=39	=39	=39	=39	=39	=39	=39	=39	=39
1ryy	4d\	-le-	4f/	-le-	.	4ff\	-le-	.
.	4c#X\	-i-	4g/	-i-	.	4ee\	-i-	.
.	4d\	-son	4a/	-son	.	4dd\	-son	.
.	4e-X\	e-	4a/	e-	.	4ccn\	e-	.
=40	=40	=40	=40	=40	=40	=40	=40	=40
1ryy	4d\	-le-	4g/	-le-	.	4b-\	-le-	.
.	4c\	-i-	4f#X/	-i-	.	4a/	-i-	.
.	4B-\	-son	4g/	-son	.	4g/	-son	.
.	(8g\L	e-	4g/	e-	.	4dd\	e-	.
.	8f\J)	.	.	.	.	.	.	.
!	!LO:LB:g=original	!	!LO:LB:g=original	!	!	!LO:LB:g=original	!	!
=41	=41	=41	=41	=41	=41	=41	=41	=41
1ryy	(2f\	-le-	2.g/	-le-	.	2.cc\	-le-	.
.	8e\L	.	.	.	.	.	.	.
.	8d\J)	.	.	.	.	.	.	.
.	(8c\L	-i-	4c/	-i-	.	4cc\	-i-	.
.	8B-\J)	.	.	.	.	.	.	.
=42	=42	=42	=42	=42	=42	=42	=42	=42
1ryy	4A/	-son	2c/	-son	.	2f/	-son	.
.	4F/	Chri-	.	.	.	.	.	.
.	4F/	-ste	2r	.	.	2r	.	.
.	4F/	e-	.	.	.	.	.	.
=43	=43	=43	=43	=43	=43	=43	=43	=43
1ryy	1B-	-lei-	2d/	Chri-	.	2d/	Chri-	.
.	.	.	2c/	.	.	2e/	.	.
=44	=44	=44	=44	=44	=44	=44	=44	=44
1ryy	4A/	-son	4c/	-ste	.	4f/	-ste	.
.	4r	.	4f/	e-	.	4f/	e-	.
.	2r	.	4f/	-lei-	.	4f/	-lei-	.
.	.	.	4f/	-son	.	4f/	-son	.
!	!	!	!	!	!	!LO:LB:g=original	!	!
=45	=45	=45	=45	=45	=45	=45	=45	=45
1ryy	2F/	Ky-	(>2d/	Ky-	.	2d/	Ky-	.
.	2B-/	-ri-	4d-X/)	-ri-	.	2e/	-ri-	.
.	.	.	4c/	.	.	.	.	.
!	!LO:LB:g=original	!	!LO:LB:g=original	!	!	!	!	!
=46	=46	=46	=46	=46	=46	=46	=46	=46
1ryy	2.A/	-e	2.c/	-e	.	2.f/	-e	.
.	4A/	e-	4c/	e-	.	4f/	e-	.
=47	=47	=47	=47	=47	=47	=47	=47	=47
1ryy	2A/	-le-	2c/	-le-	.	2f/	-le-	.
.	2A/	-i-	2c/	-i-	.	2f/	-i-	.
=48	=48	=48	=48	=48	=48	=48	=48	=48
1ryy	1A;	-son	1c;	-son	.	1f;	-son	.
==	==	==	==	==	==	==	==	==
*-	*-	*-	*-	*-	*-	*-	*-	*-
!!!system-decoration: [(s1,s2,s3,s4)]
!!!RDF**kern: > = above
!!!RDF**kern: < = below
!!!ENC: Marta Lawrence
!!!END: 2021-01-15
!!!ENC: Andrzej Gręziak
!!!END: 2021-01-10
